Default.style/drinking_water.svg

<?xml version="1.0" encoding="UTF-8" standalone="no"?>
<svg width="25px" height="30px" viewBox="0 0 25 30" version="1.1" xmlns="http://www.w3.org/2000/svg" xmlns:xlink="http://www.w3.org/1999/xlink" xmlns:sketch="http://www.bohemiancoding.com/sketch/ns">
    <!-- Generator: Sketch 3.2.2 (9983) - http://www.bohemiancoding.com/sketch -->
    <title>drinking_water</title>
    <desc>Created with Sketch.</desc>
    <defs></defs>
    <g id="p" stroke="none" stroke-width="1" fill="none" fill-rule="evenodd" sketch:type="MSPage">
        <g id="drinking_water" sketch:type="MSLayerGroup" fill="#888888">
            <path d="M19.6272842,5.0823 C19.07926,5.6247 18.3393532,5.8368 17.5189506,5.8368 C16.4775563,5.8368 15.530321,5.4033 14.9861583,4.5825 C14.4464511,5.4201 13.4947604,5.8368 12.4399995,5.8368 C11.3986051,5.8368 10.4599838,5.3943 9.91582112,4.5738 C9.37551981,5.4204 8.4238291,5.8368 7.35778105,5.8368 C6.58787396,5.8368 5.8821258,5.6595 5.35073545,5.1777 L4.94766295,2.2269 C5.49954851,2.973 6.37490198,3.4551 7.35778105,3.4551 C8.4238291,3.4551 9.37551981,2.9208 9.91582112,2.0745 C10.4599838,2.895 11.3986051,3.4551 12.4399995,3.4551 C13.4947604,3.4551 14.4464511,2.9208 14.9861583,2.0835 C15.530321,2.9037 16.4775563,3.4551 17.5189506,3.4551 C18.5814343,3.4551 19.5212437,2.8953 20.0564955,2.0487 L19.6272842,5.0823 L19.6272842,5.0823 Z" id="path6712" sketch:type="MSShapeGroup"></path>
            <path d="M20.3968942,30 L25,0 L21.9010646,0.0306 L17.7149918,26.8365 L7.28471117,26.8365 L3.09834137,0.0306 L0,0 L4.60280874,30 L20.3968942,30 L20.3968942,30 Z" id="path6714" sketch:type="MSShapeGroup"></path>
        </g>
    </g>
</svg>

<svg width="25" height="30" xmlns="http://www.w3.org/2000/svg"><g fill="#888" fill-rule="evenodd"><path d="M19.627 5.082c-.548.543-1.288.755-2.108.755-1.041 0-1.989-.434-2.533-1.255-.54.838-1.491 1.255-2.546 1.255-1.041 0-1.98-.443-2.524-1.263-.54.846-1.492 1.263-2.558 1.263-.77 0-1.476-.177-2.007-.66l-.403-2.95a2.996 2.996 0 0 0 2.41 1.228 3.018 3.018 0 0 0 2.558-1.38c.544.82 1.483 1.38 2.524 1.38a3.024 3.024 0 0 0 2.546-1.372 3.066 3.066 0 0 0 2.533 1.372c1.062 0 2.002-.56 2.537-1.406l-.429 3.033Z"/><path d="M20.397 30 25 0l-3.099.03-4.186 26.806H7.285L3.098.032 0 0l4.603 30h15.794Z"/></g></svg>
